X:1
T:190 - Para Salvar-te
T:Letra: Lelia Naylor Morris (1862-1929)
T:Trad.: Ricardo Pitrowsky (1891-1965)
T:Música: Lelia Naylor Morris (1862-1929)
L:1/4
M:6/4
Q:1/2=100
K:Db
V:1
"D"FFFAAA | "(Dbdim)"B2 F "(Db)"A3 |ABcd2 B | "Ab7"c6 | GGGBBB |c2 cG3 |edcB2 c | "Db"A3- A2z | dcB (A=G)A |B2 FA3 |dcB (A=G)A | "Gb"c2 BB3 | "Ebm"eee "Db/F"d2 d | "Gb"c2 B ("Db"HA2 "Ebm"HG) | "Db/Ab"FAG "Ab7"F2 E | "Db"D3- D2 z || "Db"d3 "Ab7"c3 | "Bbm"B3 F3 | "Db"ABc e2 d | "Ebm"E3- E2z | "Ab7"c3 e3 | "Ebm"G3 B3 | "Ab7"Bcd c2B | "Db"F3- F2z | f3 "Ab7"e3 | "Bbm"d3 "F7"c3 | "Gb"B=AB "Ab7"c2 B | "Db"A3- A2z | "Ab7"g3 "Db"f3 | "Ebm"e3 "Edim"B3 | "Db/F"ABd "Ab7"He2 d | "Db"d3- d2z |]
w: 1.~Vei-o Je-sus aes-te mun-do vil Pa-ra bus-car-tea ti; Foi re-jei-ta-do por gen-tehos-til Pa-ra sal-var-tea ti._ Gló-rias a-li_ no céu dei-xou, In-gra-ti-dão_ no mun-doa-chou, Tu-doe-le fez por-que tea-mou,_ Pa-ra sal-var-tea ti._ Gló-ria, gló-ria de-mos ao Sal-va-dor!_  Gló-ria, gló-ria, por seu tão gran-dea-mor!_  Gló-ria, gló-ria, te-mos a paz com Deus!_    Gló-ria, gló-ria, va-mos can-tar nos céus!_ 
w: 2.~O teu cas-ti-go Je-sus le-vou Pa-ra sal-var-tea ti; Tu-do na cruz e-le con-su-mou Pa-ra re-mir-tea ti;_ Quem den-treos ho_mens com-preen-deu To-das as do_res que so-freu, A con-di-ção em que mor-reu_ Pa-ra sal-var-tea ti?_  
w: 3.~Tu-dois-to Deus fez em teu fa-vor Pa-ra sal-var-tea ti; Cha-ma-tea-go-ra com ter-noa-mor Pa-ra per-doar-tea ti._ De-ves che-gar_ em con-tri-ção, Ten-do cer-te_za do per-dão; Cris-to tees-ten-dea su-a mão_ Pa-ra sal-var-tea ti._
w: 4.~Oh, quea-le-gri-a, que go-zoe paz Ter sal-va-ção de Deus E no-va vi-da que sa-tis-faz Aal-ma que bus-caos céus!_ Li-vre das cul_pas do pe-car, Lon-ge da dor_ e do cho-rar, Ten-do cer-te-za de go-zar_ A re-den-ção de Deus!_
W: 
W:
W: 1. Veio Jesus a este mundo vil
W: Para buscar-te a ti;
W: Foi rejeitado por gente hostil
W: Para salvar-te a ti.
W: Glórias ali no céu deixou,
W: Ingratidão no mundo achou,
W: Tudo ele fez porque te amou,
W: Para salvar-te a ti.
W: 
W:    (Estribilho)
W:    Glória, glória demos ao Salvador!
W:    Glória, glória, por seu tão grande amor!
W:    Glória, glória, temos a paz com Deus!
W:    Glória, glória, vamos cantar nos céus!
W: 
W: 2. O teu castigo Jesus levou
W: Para salvar-te a ti;
W: Tudo na cruz ele consumou
W: Para remir-te a ti;
W: Quem dentre os homens compreendeu
W: Todas as dores que sofreu,
W: A condição em que morreu
W: Para salvar-te a ti?
W: 
W:
W:
W: 3. Tudo isto Deus fez em teu favor
W: Para salvar-te a ti;
W: Chama-te agora com terno amor
W: Para perdoar-te a ti.
W: Deves chegar em contrição,
W: Tendo certeza do perdão;
W: Cristo te estende a sua mão
W: Para salvar-te a ti.
W: 
W: 4. Oh, que alegria, que gozo e paz
W: Ter salvação de Deus
W: E nova vida que satisfaz
W: A alma que busca os céus!
W: Livre das culpas do pecar,
W: Longe da dor e do chorar,
W: Tendo certeza de gozar
W: A redenção de Deus!
W: 
W: 





